X: 1
T: Anderson's Reel
T: Michael Anderson's Reel
R: reel
O: Ireland
Z: 2020 John Chambers <jc:trillian.mit.edu>
S: https://www.facebook.com/groups/Fiddletuneoftheday/
S: https://www.facebook.com/photo.php?fbid=1606482869502687
N: May be played with the strains reversed, and/or without repeats.
M: C|
L: 1/8
K: D
|:\
"D"ABdf "G"efdB | "D"AFFF "A"EDEF | "D"ABdf "G"e2df | "A"afef "D"d2dB |
"D"ABdf "G"efdB | "D"AFFF "A"EDEF | "D"ABdf "G"e2df | "A"afef "D"d2 [1 dc :|2 fg ||
|:\
"D"a2fa bafa | a2fd "G"edBd | "D"a2fa bafb | "A"afef "D"defg |
"D"a2fa bafa | a2fd "G"edBd | "D"AFFF "G"ABdf | "A"afef "D"d3z :|
